X:1
T:The Hell-Bound Train (2)
M:4/4
L:1/4
K:F
 A/2| C F F3/2 A/4G/4| F D C3/2 C/2| F F/2F/2 c3/2d/4-c/4| A F A3/2 A/2|\
 F F c3/2 d/4c/4| A F A3/2 F/2| D F/2F/2 GA/2-G/2| F D F z/2||
